X:1
T:Arthur Muse's
S:Bernie Waugh
R:Jig
M:6/8
L:1/8
K:A Mix
|:f|\
"A"eAA "D"f2f|"A"ecA Ace|"G"g2d ~B3|GBd gdf|
"A"eAA "D"f2f|"A"ecA Ace|"G"g2e "E"dcd|"A"eAA A2:|
a|\
"A"a2a aec|"(F#m)"Ace agf|"G"~g3 gdB|"(Em)"GBd gdB|
"A"a2a aec|Ace agf|"G"a2e "E"dcd|"A"ecA A2a||
"A"a2a aec|"(F#m)"Ace agf|"G"~g3 gdB|"(Em)"GBd gdB|
"C"~=c3 ~d3|"Am"efg a2f|"G"g2e "E7"dcd|"A"ecA A2||

